!!!OTL: Sifang xiongdi daojintian
!!!ARE: Asia, China,ÿGuangxi Guiping
!! II, 474
!!!SCT: C1983
!!!YEM: Copyright 1995, estate of Helmut Schaffrath.
**kern
*ICvox
*Ivox
*M2/4
*k[f#c#]
*D:
{8ff#
8ee
16ee
16ff#
8ee
=1
8ff#
4.ee
=2
2b}
=3
{8ee
16ee
16dd
16b
16dd
16b
16a
=4
8a
16a
16b
8.dd
16ee
=5
2a}
=6
{8ff#
8ee
16ee
16ff#
8ee
=7
8ff#
4.ee
=8
2b}
=9
{8ee
16ee
16dd
16b
16dd
8a
=10
8a
16a
16b
8.dd
16ee
=11
2a}
==
!!!AGN: Shange, Jintian shange
!!!AMT: simple duple
!!!AIN: vox
!!!EED: Helmut Schaffrath
!!!EEV: 1.0
*-
